dest/img/social/vk.svg

<svg width="32" height="32" viewBox="0 0 32 32" fill="none" xmlns="http://www.w3.org/2000/svg">
<path fill-rule="evenodd" clip-rule="evenodd" d="M16 0C7.16344 0 0 7.16344 0 16C0 24.8366 7.16344 32 16 32C24.8366 32 32 24.8366 32 16C32 7.16344 24.8366 0 16 0ZM17.3029 21.0509C17.1451 21.2172 16.8371 21.2508 16.8371 21.2508H15.8171C15.8171 21.2508 13.5666 21.3835 11.5841 19.358C9.42219 17.1482 7.51316 12.7638 7.51316 12.7638C7.51316 12.7638 7.40297 12.4762 7.52234 12.3377C7.65673 12.1812 8.02318 12.1714 8.02318 12.1714L10.4614 12.1558C10.4614 12.1558 10.691 12.1927 10.8554 12.3115C10.9915 12.4098 11.0674 12.5925 11.0674 12.5925C11.0674 12.5925 11.4614 13.5708 11.9831 14.4558C13.0023 16.1838 13.4765 16.5615 13.8221 16.3764C14.3262 16.1068 14.1751 13.9338 14.1751 13.9338C14.1751 13.9338 14.1843 13.1456 13.9214 12.7941C13.7177 12.522 13.3337 12.4426 13.1643 12.4204C13.0266 12.4024 13.2519 12.0894 13.5441 11.9493C13.9832 11.7387 14.7578 11.7264 15.6735 11.7354C16.3872 11.7428 16.5925 11.7862 16.8713 11.8526C17.5184 12.0059 17.4982 12.4971 17.4546 13.5572C17.4416 13.8742 17.4264 14.2422 17.4264 14.6672C17.4264 14.7627 17.4236 14.8645 17.4207 14.9692C17.4055 15.5123 17.3882 16.1342 17.7528 16.3657C17.9398 16.4837 18.3964 16.3829 19.5391 14.4787C20.0809 13.5758 20.4866 12.5147 20.4866 12.5147C20.4866 12.5147 20.5759 12.3254 20.7136 12.2443C20.8547 12.1615 21.045 12.1869 21.045 12.1869L23.611 12.1714C23.611 12.1714 24.3822 12.0804 24.5066 12.4229C24.6377 12.781 24.2186 13.6184 23.1702 14.99C22.1757 16.2914 21.6917 16.7706 21.7361 17.1944C21.7686 17.5041 22.0832 17.7841 22.6869 18.3338C23.9472 19.4824 24.285 20.0866 24.3661 20.2318C24.3729 20.2439 24.3778 20.2528 24.3814 20.2585C24.9465 21.1787 23.7545 21.2508 23.7545 21.2508L21.4749 21.2819C21.4749 21.2819 20.9857 21.377 20.3413 20.9427C20.0037 20.7154 19.6739 20.3442 19.3597 19.9906C18.8799 19.4506 18.4366 18.9518 18.0583 19.0696C17.4231 19.2679 17.4423 20.6109 17.4423 20.6109C17.4423 20.6109 17.4473 20.8985 17.3029 21.0509Z" fill="white"/>
</svg>

<svg width="32" height="32" fill="none" xmlns="http://www.w3.org/2000/svg"><path fill-rule="evenodd" clip-rule="evenodd" d="M16 0C7.163 0 0 7.163 0 16s7.163 16 16 16 16-7.163 16-16S24.837 0 16 0Zm1.303 21.05c-.158.167-.466.2-.466.2h-1.02s-2.25.134-4.233-1.892c-2.162-2.21-4.07-6.594-4.07-6.594s-.111-.288.008-.426c.135-.157.501-.167.501-.167l2.438-.015s.23.037.394.155c.136.099.212.281.212.281s.394.979.916 1.864c1.02 1.728 1.493 2.105 1.84 1.92.503-.27.352-2.442.352-2.442s.01-.788-.254-1.14c-.203-.272-.587-.351-.757-.374-.137-.018.088-.33.38-.47.44-.211 1.214-.224 2.13-.215.713.008.919.051 1.197.118.647.153.627.644.584 1.704-.013.317-.029.685-.029 1.11 0 .096-.002.197-.005.302-.015.543-.033 1.165.332 1.397.187.118.643.017 1.786-1.887.542-.903.948-1.964.948-1.964s.089-.19.227-.27c.14-.083.331-.058.331-.058l2.566-.016s.771-.09.896.252c.13.358-.288 1.195-1.337 2.567-.994 1.301-1.478 1.78-1.434 2.204.033.31.347.59.95 1.14 1.261 1.148 1.599 1.753 1.68 1.898l.015.027c.566.92-.627.992-.627.992l-2.28.03s-.488.096-1.133-.338c-.337-.228-.667-.599-.981-.952-.48-.54-.923-1.04-1.302-.921-.635.198-.616 1.54-.616 1.54s.005.288-.14.44Z" fill="#fff"/></svg>
